src/assets/images/footer-social-5.svg

<svg width="40" height="30" viewBox="0 0 40 30" fill="none" xmlns="http://www.w3.org/2000/svg">
<g clip-path="url(#clip0_342_923)">
<path d="M39.2143 14.8754C39.2143 14.7777 39.2143 14.6671 39.21 14.5385C39.2058 14.1785 39.1972 13.7757 39.1886 13.3445C39.157 12.1319 39.093 10.9203 38.9966 9.71108C38.8663 8.10994 38.6752 6.77451 38.4138 5.77165C38.1401 4.72917 37.6001 3.77571 36.8469 3.00479C36.1004 2.24029 35.1646 1.68724 34.1349 1.40194C32.9032 1.06508 30.492 0.856795 27.0969 0.728223C25.482 0.665652 23.754 0.625366 22.026 0.603937C21.4209 0.595366 20.8595 0.590223 20.3546 0.585938H19.0749C18.5692 0.590223 18.0086 0.594509 17.4035 0.60308C15.6755 0.626223 13.9475 0.665652 12.3326 0.728223C8.93747 0.86108 6.52118 1.06937 5.29375 1.40194C4.26367 1.68655 3.32754 2.23935 2.5809 3.00394C1.8278 3.77536 1.28841 4.72948 1.01575 5.77251C0.750039 6.77365 0.562325 8.10908 0.432896 9.71108C0.336516 10.9206 0.272493 12.1324 0.240896 13.3454C0.227182 13.7748 0.223754 14.1785 0.218611 14.5385C0.218611 14.6671 0.214325 14.7785 0.214325 14.8754V15.1239C0.214325 15.2217 0.214325 15.3322 0.218611 15.4608C0.222896 15.8208 0.232325 16.2237 0.240896 16.6539C0.275182 17.8925 0.336039 19.1251 0.432039 20.2882C0.562325 21.8894 0.754325 23.2248 1.0149 24.2277C1.57204 26.3525 3.20918 28.0291 5.29375 28.5974C6.52118 28.9342 8.93661 29.1425 12.3326 29.2711C13.9475 29.3337 15.6755 29.3739 17.4035 29.3954C18.0086 29.4039 18.5692 29.4091 19.0749 29.4134H20.3546C20.8595 29.4091 21.4209 29.4048 22.026 29.3962C23.754 29.3739 25.482 29.3337 27.0969 29.2711C30.4912 29.1382 32.9075 28.9299 34.1349 28.5974C36.2195 28.0291 37.8566 26.3568 38.4138 24.2277C38.6795 23.2248 38.8663 21.8894 38.9966 20.2874C39.0926 19.1251 39.1535 17.8925 39.1886 16.6539C39.2015 16.2237 39.2058 15.8199 39.21 15.4608C39.21 15.3322 39.2143 15.2208 39.2143 15.1239V14.8754ZM36.0806 15.1068C36.0806 15.1994 36.0806 15.3014 36.0763 15.4214C36.072 15.7668 36.0635 16.1491 36.0549 16.5614C36.0264 17.7149 35.9653 18.8673 35.8715 20.0174C35.754 21.4454 35.5886 22.6171 35.3846 23.4022C35.1146 24.4274 34.3218 25.2391 33.3215 25.5091C32.4069 25.7577 30.1046 25.9574 26.9752 26.0774C24.7633 26.1609 22.5501 26.2066 20.3366 26.2145H19.092L17.4463 26.2017C15.7819 26.1815 14.1177 26.1401 12.4543 26.0774C9.3249 25.9531 7.01747 25.7577 6.10804 25.5091C5.61027 25.3683 5.15798 25.0998 4.79606 24.7302C4.43414 24.3607 4.17518 23.9028 4.0449 23.4022C3.84004 22.6171 3.67461 21.4454 3.55718 20.0165C3.46591 18.8666 3.40503 17.7145 3.37461 16.5614C3.36175 16.1491 3.35747 15.7625 3.35318 15.4214C3.35318 15.3014 3.3489 15.1951 3.3489 15.1059V14.8934C3.3489 14.7999 3.3489 14.6979 3.35318 14.5779C3.35747 14.2325 3.36604 13.8502 3.37461 13.4379C3.40547 12.2577 3.46633 11.0782 3.55718 9.98194C3.67461 8.55394 3.84004 7.38222 4.0449 6.59708C4.3149 5.57194 5.1069 4.76022 6.10804 4.49022C7.02175 4.24165 9.3249 4.04194 12.4543 3.92194C14.118 3.85913 15.7824 3.81769 17.4472 3.79765C17.9957 3.78933 18.5443 3.78504 19.0929 3.78479H20.3366L21.9823 3.79765C23.6846 3.81994 25.386 3.86022 26.9752 3.92194C30.1038 4.04622 32.4112 4.24165 33.3215 4.49022C33.8192 4.63097 34.2715 4.89947 34.6334 5.26906C34.9954 5.63865 35.2543 6.09647 35.3846 6.59708C35.5886 7.38222 35.754 8.55394 35.8715 9.98279C35.9632 11.0782 36.0198 12.2577 36.0549 13.4379C36.0678 13.8502 36.072 14.2368 36.0763 14.5779C36.0763 14.6979 36.0806 14.8042 36.0806 14.8934V15.1068ZM15.8409 20.9439L25.9389 14.9551L15.8409 9.05451V20.9439Z" fill="white"/>
</g>
<defs>
<clipPath id="clip0_342_923">
<rect width="39.4286" height="30" fill="white"/>
</clipPath>
</defs>
</svg>

<svg xmlns="http://www.w3.org/2000/svg" width="40" height="30" fill="none"><g clip-path="url(#a)"><path fill="#fff" d="M39.214 14.875c0-.097 0-.208-.004-.336-.004-.36-.013-.763-.021-1.194a68.02 68.02 0 0 0-.192-3.634c-.13-1.601-.322-2.936-.583-3.94a6.22 6.22 0 0 0-1.567-2.766 6.047 6.047 0 0 0-2.712-1.603c-1.232-.337-3.643-.545-7.038-.674a195.315 195.315 0 0 0-5.071-.124 289.83 289.83 0 0 0-1.671-.018h-1.28c-.506.004-1.066.009-1.671.017-1.729.023-3.457.063-5.071.125-3.396.133-5.812.341-7.04.674a6.04 6.04 0 0 0-2.712 1.602 6.212 6.212 0 0 0-1.565 2.769C.75 6.773.562 8.109.433 9.71a68.065 68.065 0 0 0-.192 3.634c-.014.43-.017.833-.022 1.194 0 .128-.005.24-.005.336v.249c0 .098 0 .208.005.337.004.36.013.763.022 1.193.034 1.238.095 2.471.191 3.634.13 1.601.322 2.937.583 3.94.557 2.124 2.194 3.801 4.279 4.37 1.227.336 3.643.544 7.039.673a195.5 195.5 0 0 0 5.07.124c.606.009 1.166.014 1.672.018h1.28c.505-.004 1.066-.008 1.671-.017 1.728-.022 3.456-.062 5.07-.125 3.395-.133 5.811-.341 7.039-.674 2.084-.568 3.722-2.24 4.279-4.37.265-1.002.452-2.338.583-3.94.096-1.162.157-2.395.192-3.633.013-.43.017-.834.021-1.193 0-.129.004-.24.004-.337v-.249Zm-3.133.232c0 .092 0 .194-.005.314-.004.346-.013.728-.021 1.14a61.07 61.07 0 0 1-.184 3.456c-.117 1.428-.282 2.6-.486 3.385-.27 1.025-1.063 1.837-2.063 2.107-.915.249-3.217.448-6.347.568-2.212.084-4.425.13-6.638.137h-1.245l-1.646-.012c-1.664-.02-3.328-.062-4.992-.125-3.13-.124-5.437-.32-6.346-.568a2.966 2.966 0 0 1-2.063-2.107c-.205-.785-.37-1.957-.488-3.386a65.498 65.498 0 0 1-.182-3.455c-.013-.412-.018-.799-.022-1.14 0-.12-.004-.226-.004-.315v-.213c0-.093 0-.195.004-.315.004-.345.013-.728.022-1.14.03-1.18.091-2.36.182-3.456.118-1.428.283-2.6.488-3.385.27-1.025 1.062-1.837 2.063-2.107.914-.248 3.217-.448 6.346-.568a194.352 194.352 0 0 1 6.639-.137h1.244l1.645.013c1.703.022 3.404.062 4.993.124 3.129.124 5.436.32 6.346.568a2.966 2.966 0 0 1 2.064 2.107c.204.785.369 1.957.486 3.386.092 1.095.149 2.275.184 3.455.013.412.017.799.021 1.14 0 .12.005.226.005.315v.214Zm-20.24 5.837 10.098-5.989-10.098-5.9v11.889Z"/></g><defs><clipPath id="a"><path fill="#fff" d="M0 0h39.429v30H0z"/></clipPath></defs></svg>
